svgs/printer.svg

<svg width="192" height="192" viewBox="0 0 192 192" fill="none" xmlns="http://www.w3.org/2000/svg">
<path d="M22 144H50V103H142V144H170V73H22V144Z" stroke="black" stroke-width="12" stroke-linecap="round" stroke-linejoin="round"/>
<path d="M138 24H55V72H138V24Z" stroke="black" stroke-width="12" stroke-linecap="round" stroke-linejoin="round"/>
<path d="M126 136H66L66 168L126 168V136Z" stroke="black" stroke-width="12" stroke-linecap="round" stroke-linejoin="round"/>
<path d="M153 95C155.761 95 158 92.7614 158 90C158 87.2386 155.761 85 153 85C150.239 85 148 87.2386 148 90C148 92.7614 150.239 95 153 95Z" stroke="black" stroke-width="6" stroke-linecap="round" stroke-linejoin="round"/>
</svg>

<svg width="192" height="192" viewBox="0 0 192 192" fill="none" xmlns="http://www.w3.org/2000/svg"><path d="M22 144h28v-41h92v41h28V73H22v71ZM138 24H55v48h83V24Z" stroke="#000" stroke-width="12" stroke-linecap="round" stroke-linejoin="round"/><path d="M126 136H66v32h60v-32Z" stroke="#000" stroke-width="12" stroke-linecap="round" stroke-linejoin="round"/><path d="M153 95a5 5 0 1 0 0-10 5 5 0 0 0 0 10Z" stroke="#000" stroke-width="6" stroke-linecap="round" stroke-linejoin="round"/></svg>
